ui/StatusQ/src/assets/img/icons/checkmark-circle.svg

<svg fill="none" height="24" viewBox="0 0 24 24" width="24" xmlns="http://www.w3.org/2000/svg"><path clip-rule="evenodd" d="m20.5 12c0 4.6944-3.8056 8.5-8.5 8.5-4.69442 0-8.5-3.8056-8.5-8.5 0-4.69442 3.80558-8.5 8.5-8.5 4.6944 0 8.5 3.80558 8.5 8.5zm1.5 0c0 5.5228-4.4772 10-10 10-5.52285 0-10-4.4772-10-10 0-5.52285 4.47715-10 10-10 5.5228 0 10 4.47715 10 10zm-5.2272-1.8839c.2929-.29292.2929-.76779 0-1.06069-.2929-.29289-.7677-.29289-1.0606 0l-5.1266 5.12649-2.29806-2.2981c-.29289-.2929-.76777-.2929-1.06066 0-.2929.2929-.29289.7678 0 1.0607l2.82842 2.8284c.2929.2929.7678.2929 1.0607 0z" fill="#0d1625" fill-rule="evenodd"/></svg>

<svg width="24" height="24" viewBox="0 0 24 24" fill="none" xmlns="http://www.w3.org/2000/svg">
<path fill-rule="evenodd" clip-rule="evenodd" d="M20.5 12C20.5 16.6944 16.6944 20.5 12 20.5C7.30558 20.5 3.5 16.6944 3.5 12C3.5 7.30558 7.30558 3.5 12 3.5C16.6944 3.5 20.5 7.30558 20.5 12ZM22 12C22 17.5228 17.5228 22 12 22C6.47715 22 2 17.5228 2 12C2 6.47715 6.47715 2 12 2C17.5228 2 22 6.47715 22 12ZM16.7728 10.1161C17.0657 9.82318 17.0657 9.34831 16.7728 9.05541C16.4799 8.76252 16.0051 8.76252 15.7122 9.05541L10.5856 14.1819L8.28754 11.8838C7.99465 11.5909 7.51977 11.5909 7.22688 11.8838C6.93398 12.1767 6.93399 12.6516 7.22688 12.9445L10.0553 15.7729C10.3482 16.0658 10.8231 16.0658 11.116 15.7729L16.7728 10.1161Z" fill="#0D1625"/>
</svg>
